; generated by Slic3r Prusa Edition 1.40.0-beta+win64 on 2021-01-04 at 19:12:13

; 

; external perimeters extrusion width = 0.45mm
; perimeters extrusion width = 0.45mm
; infill extrusion width = 0.45mm
; solid infill extrusion width = 0.45mm
; top infill extrusion width = 0.40mm
; first layer extrusion width = 0.70mm

M107
M104 S200 ; set temperature
G28 ; home all axes
G1 Z5 F5000 ; lift nozzle
; Filament gcode
M109 S200 ; set temperature and wait for it to be reached
G21 ; set units to millimeters
G90 ; use absolute coordinates
M82 ; use absolute distances for extrusion
G92 E0
G1 Z0.350 F15600.000
G1 E-2.00000 F2400.00000
G92 E0
G1 X64.632 Y76.463 F15600.000
G1 E2.00000 F2400.00000
G1 F3600
G1 X65.414 Y75.887 E2.08828
G1 X66.269 Y75.413 E2.17717
G1 X67.178 Y75.053 E2.26607
G1 X68.119 Y74.815 E2.35435
G1 X69.490 Y74.688 E2.47958
G1 X150.507 Y74.688 E9.84639
G1 X151.556 Y74.762 E9.94207
G1 X152.585 Y74.981 E10.03774
G1 X153.580 Y75.344 E10.13404
G1 X154.509 Y75.838 E10.22971
G1 X155.360 Y76.457 E10.32539
G1 X156.118 Y77.187 E10.42106
G1 X156.766 Y78.016 E10.51674
G1 X157.296 Y78.933 E10.61303
G1 X157.806 Y80.299 E10.74564
G1 X158.045 Y81.745 E10.87887
G1 X158.052 Y90.151 E11.64323
G1 X157.916 Y91.228 E11.74199
G1 X157.626 Y92.282 E11.84136
G1 X154.544 Y100.500 E12.63948
G1 X153.957 Y101.686 E12.75979
G1 X152.998 Y102.942 E12.90347
G1 X151.794 Y103.975 E13.04776
G1 X150.406 Y104.731 E13.19143
G1 X148.886 Y105.184 E13.33572
G1 X147.500 Y105.312 E13.46225
G1 X72.493 Y105.312 E20.28259
G1 X71.289 Y105.215 E20.39243
G1 X69.777 Y104.805 E20.53488
G1 X68.382 Y104.093 E20.67732
G1 X67.163 Y103.108 E20.81977
G1 X66.174 Y101.893 E20.96222
G1 X65.436 Y100.450 E21.10958
G1 X62.389 Y92.322 E21.89890
G1 X62.065 Y91.131 E22.01121
G1 X61.938 Y89.854 E22.12783
G1 X61.941 Y82.026 E22.83966
G1 X62.077 Y80.805 E22.95135
G1 X62.409 Y79.622 E23.06305
G1 X62.807 Y78.730 E23.15194
G1 X63.313 Y77.901 E23.24022
G1 X63.926 Y77.139 E23.32912
G1 X64.589 Y76.504 E23.41255
G1 X65.021 Y76.953 F15600.000
G1 F3600
G1 X65.751 Y76.413 E23.49517
G1 X66.548 Y75.972 E23.57794
G1 X67.395 Y75.640 E23.66072
G1 X68.279 Y75.421 E23.74350
G1 X69.489 Y75.313 E23.85400
G1 X150.507 Y75.313 E31.22087
G1 X151.486 Y75.383 E31.31014
G1 X152.445 Y75.591 E31.39941
G1 X153.366 Y75.932 E31.48868
G1 X154.229 Y76.400 E31.57795
G1 X155.017 Y76.985 E31.66722
G1 X155.715 Y77.675 E31.75649
G1 X156.312 Y78.463 E31.84635
G1 X156.789 Y79.321 E31.93562
G1 X157.226 Y80.552 E32.05437
G1 X157.425 Y81.843 E32.17312
G1 X157.424 Y90.173 E32.93058
G1 X157.297 Y91.140 E33.01926
G1 X157.033 Y92.085 E33.10853
G1 X153.965 Y100.265 E33.90289
G1 X153.438 Y101.338 E34.01162
G1 X152.550 Y102.507 E34.14509
G1 X151.430 Y103.466 E34.27915
G1 X150.134 Y104.168 E34.41321
G1 X148.718 Y104.580 E34.54727
G1 X147.500 Y104.687 E34.65846
G1 X72.493 Y104.687 E41.47877
G1 X71.418 Y104.602 E41.57689
G1 X70.006 Y104.224 E41.70977
G1 X68.706 Y103.558 E41.84266
G1 X67.578 Y102.639 E41.97495
G1 X66.663 Y101.499 E42.10783
G1 X66.014 Y100.211 E42.23895
G1 X62.977 Y92.113 E43.02542
G1 X62.671 Y90.970 E43.13297
G1 X62.563 Y89.831 E43.23699
G1 X62.565 Y82.061 E43.94351
G1 X62.683 Y80.963 E44.04399
G1 X62.974 Y79.897 E44.14447
G1 X63.335 Y79.068 E44.22666
G1 X63.805 Y78.288 E44.30943
G1 X64.373 Y77.577 E44.39221
G1 X64.977 Y76.995 E44.46851
G1 X65.411 Y77.443 F15600.000
G1 F3600
G1 X66.100 Y76.931 E44.54656
G1 X66.839 Y76.526 E44.62326
G1 X67.626 Y76.222 E44.69997
G1 X68.441 Y76.027 E44.77610
G1 X69.491 Y75.938 E44.87194
G1 X150.506 Y75.938 E52.23862
G1 X151.415 Y76.004 E52.32152
G1 X152.306 Y76.201 E52.40442
G1 X153.152 Y76.522 E52.48675
G1 X153.950 Y76.964 E52.56964
G1 X154.671 Y77.512 E52.65198
G1 X155.310 Y78.162 E52.73487
G1 X155.845 Y78.892 E52.81721
G1 X156.273 Y79.697 E52.90010
G1 X156.643 Y80.795 E53.00550
G1 X156.805 Y81.937 E53.11033
G1 X156.797 Y90.184 E53.86025
G1 X156.678 Y91.044 E53.93920
G1 X156.440 Y91.886 E54.01872
G1 X153.388 Y100.024 E54.80909
G1 X152.918 Y100.989 E54.90661
G1 X152.101 Y102.072 E55.02998
G1 X151.066 Y102.958 E55.15391
G1 X149.865 Y103.603 E55.27784
G1 X148.560 Y103.973 E55.40120
G1 X147.504 Y104.062 E55.49760
G1 X72.494 Y104.062 E62.31822
G1 X71.535 Y103.988 E62.40562
G1 X70.231 Y103.640 E62.52843
G1 X69.029 Y103.023 E62.65123
G1 X67.987 Y102.164 E62.77404
G1 X67.152 Y101.103 E62.89684
G1 X66.593 Y99.976 E63.01123
G1 X63.564 Y91.897 E63.79581
G1 X63.277 Y90.812 E63.89783
G1 X63.188 Y89.817 E63.98860
G1 X63.189 Y82.095 E64.69081
G1 X63.289 Y81.120 E64.77990
G1 X63.541 Y80.167 E64.86955
G1 X63.872 Y79.391 E64.94625
G1 X64.300 Y78.671 E65.02239
G1 X64.819 Y78.015 E65.09853
G1 X65.368 Y77.485 E65.16785
G1 E63.16785 F2400.00000
G92 E0
G1 X145.900 Y96.150 F15600.000
G1 E2.00000 F2400.00000
G1 F3600
G1 X74.100 Y96.150 E8.52878
G1 X74.100 Y88.300 E9.24262
G1 X145.900 Y88.300 E15.77141
G1 X145.900 Y96.090 E16.47979
G1 X146.525 Y96.775 F15600.000
G1 F3600
G1 X73.475 Y96.775 E23.12221
G1 X73.475 Y87.675 E23.94969
G1 X146.525 Y87.675 E30.59212
G1 X146.525 Y96.715 E31.41414
G1 E29.41414 F2400.00000
G92 E0
G1 X147.150 Y88.100 F15600.000
G1 E2.00000 F2400.00000
G1 F3600
G1 X150.150 Y88.100 E2.27279
G1 X150.150 Y89.400 E2.39100
G1 X147.150 Y89.400 E2.66379
G1 X147.150 Y97.400 E3.39122
G1 X72.850 Y97.400 E10.14729
G1 X72.850 Y89.400 E10.87473
G1 X69.850 Y89.400 E11.14752
G1 X69.850 Y88.100 E11.26572
G1 X72.850 Y88.100 E11.53851
G1 X72.850 Y87.050 E11.63399
G1 X147.150 Y87.050 E18.39006
G1 X147.150 Y88.040 E18.48008
G1 X147.348 Y88.447 F15600.000
G1 X146.838 Y88.750
G1 F3600
G1 X149.838 Y88.750 E18.77479
G1 E16.77479 F2400.00000
G92 E0
G1 X145.713 Y89.757 F15600.000
G1 E2.00000 F2400.00000
G1 F3600
G1 X144.724 Y88.768 E2.12769
G1 X143.837 Y88.768 E2.20882
G1 X145.432 Y90.363 E2.41490
G1 X145.432 Y91.251 E2.49602
G1 X142.949 Y88.768 E2.81683
G1 X142.061 Y88.768 E2.89796
G1 X145.432 Y92.139 E3.33350
G1 X145.432 Y93.027 E3.41462
G1 X141.173 Y88.768 E3.96488
G1 X140.285 Y88.768 E4.04600
G1 X145.432 Y93.915 E4.71099
G1 X145.432 Y94.803 E4.79212
G1 X139.397 Y88.768 E5.57183
G1 X138.509 Y88.768 E5.65296
G1 X145.422 Y95.682 E6.54617
G1 X144.534 Y95.682 E6.62730
G1 X137.621 Y88.768 E7.52052
G1 X136.733 Y88.768 E7.60164
G1 X143.646 Y95.682 E8.49486
G1 X142.758 Y95.682 E8.57598
G1 X135.845 Y88.768 E9.46920
G1 X134.957 Y88.768 E9.55033
G1 X141.870 Y95.682 E10.44355
G1 X140.982 Y95.682 E10.52467
G1 X134.069 Y88.768 E11.41789
G1 X133.181 Y88.768 E11.49901
G1 X140.095 Y95.682 E12.39223
G1 X139.207 Y95.682 E12.47336
G1 X132.293 Y88.768 E13.36657
G1 X131.406 Y88.768 E13.44770
G1 X138.319 Y95.682 E14.34092
G1 X137.431 Y95.682 E14.42204
G1 X130.518 Y88.768 E15.31526
G1 X129.630 Y88.768 E15.39638
G1 X136.543 Y95.682 E16.28960
G1 X135.655 Y95.682 E16.37073
G1 X128.742 Y88.768 E17.26395
G1 X127.854 Y88.768 E17.34507
G1 X134.767 Y95.682 E18.23829
G1 X133.879 Y95.682 E18.31941
G1 X126.966 Y88.768 E19.21263
G1 X126.078 Y88.768 E19.29375
G1 X132.991 Y95.682 E20.18697
G1 X132.103 Y95.682 E20.26810
G1 X125.190 Y88.768 E21.16132
G1 X124.302 Y88.768 E21.24244
G1 X131.215 Y95.682 E22.13566
G1 X130.327 Y95.682 E22.21678
G1 X123.414 Y88.768 E23.11000
G1 X122.526 Y88.768 E23.19113
G1 X129.439 Y95.682 E24.08435
G1 X128.551 Y95.682 E24.16547
G1 X121.638 Y88.768 E25.05869
G1 X120.750 Y88.768 E25.13981
G1 X127.663 Y95.682 E26.03303
G1 X126.776 Y95.682 E26.11415
G1 X119.862 Y88.768 E27.00737
G1 X118.974 Y88.768 E27.08850
G1 X125.888 Y95.682 E27.98172
G1 X125.000 Y95.682 E28.06284
G1 X118.087 Y88.768 E28.95606
G1 X117.199 Y88.768 E29.03718
G1 X124.112 Y95.682 E29.93040
G1 X123.224 Y95.682 E30.01153
G1 X116.311 Y88.768 E30.90475
G1 X115.423 Y88.768 E30.98587
G1 X122.336 Y95.682 E31.87909
G1 X121.448 Y95.682 E31.96021
G1 X114.535 Y88.768 E32.85343
G1 X113.647 Y88.768 E32.93455
G1 X120.560 Y95.682 E33.82777
G1 X119.672 Y95.682 E33.90890
G1 X112.759 Y88.768 E34.80212
G1 X111.871 Y88.768 E34.88324
G1 X118.784 Y95.682 E35.77646
G1 X117.896 Y95.682 E35.85758
G1 X110.983 Y88.768 E36.75080
G1 X110.095 Y88.768 E36.83193
G1 X117.008 Y95.682 E37.72514
G1 X116.120 Y95.682 E37.80627
G1 X109.207 Y88.768 E38.69949
G1 X108.319 Y88.768 E38.78061
G1 X115.232 Y95.682 E39.67383
G1 X114.344 Y95.682 E39.75495
G1 X107.431 Y88.768 E40.64817
G1 X106.543 Y88.768 E40.72930
G1 X113.457 Y95.682 E41.62252
G1 X112.569 Y95.682 E41.70364
G1 X105.655 Y88.768 E42.59686
G1 X104.768 Y88.768 E42.67798
G1 X111.681 Y95.682 E43.57120
G1 X110.793 Y95.682 E43.65232
G1 X103.880 Y88.768 E44.54554
G1 X102.992 Y88.768 E44.62667
G1 X109.905 Y95.682 E45.51989
G1 X109.017 Y95.682 E45.60101
G1 X102.104 Y88.768 E46.49423
G1 X101.216 Y88.768 E46.57535
G1 X108.129 Y95.682 E47.46857
G1 X107.241 Y95.682 E47.54970
G1 X100.328 Y88.768 E48.44291
G1 X99.440 Y88.768 E48.52404
G1 X106.353 Y95.682 E49.41726
G1 X105.465 Y95.682 E49.49838
G1 X98.552 Y88.768 E50.39160
G1 X97.664 Y88.768 E50.47272
G1 X104.577 Y95.682 E51.36594
G1 X103.689 Y95.682 E51.44707
G1 X96.776 Y88.768 E52.34029
G1 X95.888 Y88.768 E52.42141
G1 X102.801 Y95.682 E53.31463
G1 X101.913 Y95.682 E53.39575
G1 X95.000 Y88.768 E54.28897
G1 X94.112 Y88.768 E54.37009
G1 X101.026 Y95.682 E55.26331
G1 X100.138 Y95.682 E55.34444
G1 X93.224 Y88.768 E56.23766
G1 X92.336 Y88.768 E56.31878
G1 X99.250 Y95.682 E57.21200
G1 X98.362 Y95.682 E57.29312
G1 X91.449 Y88.768 E58.18634
G1 X90.561 Y88.768 E58.26747
G1 X97.474 Y95.682 E59.16068
G1 X96.586 Y95.682 E59.24181
G1 X89.673 Y88.768 E60.13503
G1 X88.785 Y88.768 E60.21615
G1 X95.698 Y95.682 E61.10937
G1 X94.810 Y95.682 E61.19049
G1 X87.897 Y88.768 E62.08371
G1 X87.009 Y88.768 E62.16484
G1 X93.922 Y95.682 E63.05806
G1 X93.034 Y95.682 E63.13918
G1 X86.121 Y88.768 E64.03240
G1 X85.233 Y88.768 E64.11352
G1 X92.146 Y95.682 E65.00674
G1 X91.258 Y95.682 E65.08786
G1 X84.345 Y88.768 E65.98108
G1 X83.457 Y88.768 E66.06221
G1 X90.370 Y95.682 E66.95543
G1 X89.482 Y95.682 E67.03655
G1 X82.569 Y88.768 E67.92977
G1 X81.681 Y88.768 E68.01089
G1 X88.594 Y95.682 E68.90411
G1 X87.707 Y95.682 E68.98524
G1 X80.793 Y88.768 E69.87845
G1 X79.905 Y88.768 E69.95958
G1 X86.819 Y95.682 E70.85280
G1 X85.931 Y95.682 E70.93392
G1 X79.018 Y88.768 E71.82714
G1 X78.130 Y88.768 E71.90826
G1 X85.043 Y95.682 E72.80148
G1 X84.155 Y95.682 E72.88261
G1 X77.242 Y88.768 E73.77583
G1 X76.354 Y88.768 E73.85695
G1 X83.267 Y95.682 E74.75017
G1 X82.379 Y95.682 E74.83129
G1 X75.466 Y88.768 E75.72451
G1 X74.578 Y88.768 E75.80563
G1 X81.491 Y95.682 E76.69885
G1 X80.603 Y95.682 E76.77998
G1 X74.568 Y89.647 E77.55969
G1 X74.568 Y90.535 E77.64081
G1 X79.715 Y95.682 E78.30579
G1 X78.827 Y95.682 E78.38692
G1 X74.568 Y91.423 E78.93718
G1 X74.568 Y92.311 E79.01830
G1 X77.939 Y95.682 E79.45383
G1 X77.051 Y95.682 E79.53495
G1 X74.568 Y93.199 E79.85576
G1 X74.568 Y94.087 E79.93688
G1 X76.163 Y95.682 E80.14296
G1 X75.275 Y95.682 E80.22409
G1 X74.287 Y94.693 E80.35177
G1 E78.35177 F2400.00000
G92 E0
G1 X73.162 Y88.750 F15600.000
G1 E2.00000 F2400.00000
G1 F3600
G1 X70.162 Y88.750 E2.29471
G1 E0.29471 F2400.00000
G92 E0
G1 X75.150 Y83.850 F15600.000
G1 E2.00000 F2400.00000
G1 F3600
G1 X69.850 Y83.850 E2.48193
G1 X69.850 Y82.600 E2.59559
G1 X75.150 Y82.600 E3.07752
G1 X75.150 Y83.790 E3.18572
G1 X74.751 Y83.819 F15600.000
G1 X75.500 Y83.725
G1 F3600
G1 X144.500 Y83.725 E12.72410
G1 X144.850 Y83.850 F15600.000
G1 F3600
G1 X144.850 Y82.600 E12.83776
G1 X150.150 Y82.600 E13.31969
G1 X150.150 Y83.850 E13.43335
G1 X144.910 Y83.850 E13.90982
G1 X145.023 Y83.489 F15600.000
G1 X145.162 Y83.225
G1 F3600
G1 X149.838 Y83.225 E14.33508
G1 E12.33508 F2400.00000
G92 E0
G1 X74.838 Y83.225 F15600.000
G1 E2.00000 F2400.00000
G1 F3600
G1 X70.162 Y83.225 E2.42526
G1 Z0.650 F15600.000
G1 E0.42526 F2400.00000
G92 E0
G1 X146.504 Y87.696 F15600.000
G1 E2.00000 F2400.00000
G1 F7200
G1 X146.504 Y96.754 E2.43564
G1 X73.496 Y96.754 E5.94705
G1 X73.496 Y87.696 E6.38268
G1 X146.444 Y87.696 E9.89121
G1 X146.889 Y88.361 F15600.000
G1 F7200
G1 X149.889 Y88.361 E10.03550
G1 X149.889 Y89.139 E10.07296
G1 X146.889 Y89.139 E10.21725
G1 X146.889 Y97.139 E10.60202
G1 X73.111 Y97.139 E14.15053
G1 X73.111 Y89.139 E14.53530
G1 X70.111 Y89.139 E14.67959
G1 X70.111 Y88.361 E14.71704
G1 X73.111 Y88.361 E14.86133
G1 X73.111 Y87.311 E14.91184
G1 X146.889 Y87.311 E18.46034
G1 X146.889 Y88.301 E18.50796
G1 X147.275 Y87.975 F15600.000
G1 F3600
G1 X150.275 Y87.975 E18.65225
G1 X150.275 Y89.525 E18.72680
G1 X147.275 Y89.525 E18.87109
G1 X147.275 Y97.525 E19.25586
G1 X72.725 Y97.525 E22.84146
G1 X72.725 Y89.525 E23.22623
G1 X69.725 Y89.525 E23.37052
G1 X69.725 Y87.975 E23.44507
G1 X72.725 Y87.975 E23.58936
G1 X72.725 Y86.925 E23.63986
G1 X147.275 Y86.925 E27.22546
G1 X147.275 Y87.915 E27.27308
G1 X147.473 Y88.322 F15600.000
G1 X146.697 Y88.750
G1 F2400
G1 X149.697 Y88.750 E27.42018
G1 E25.42018
G92 E0
G1 X145.604 Y96.638 F15600.000
G1 E2.00000 F2400.00000
G1 X146.215 Y96.028 E2.04173
G1 X146.215 Y95.480 E2.06823
G1 X145.230 Y96.465 E2.13557
G1 X144.681 Y96.465 E2.16207
G1 X146.215 Y94.931 E2.26689
G1 X146.215 Y94.383 E2.29340
G1 X144.133 Y96.465 E2.43570
G1 X143.585 Y96.465 E2.46220
G1 X146.215 Y93.835 E2.64199
G1 X146.215 Y93.287 E2.66849
G1 X143.037 Y96.465 E2.88575
G1 X142.489 Y96.465 E2.91226
G1 X146.215 Y92.739 E3.16700
G1 X146.215 Y92.191 E3.19350
G1 X141.941 Y96.465 E3.48573
G1 X141.392 Y96.465 E3.51223
G1 X146.215 Y91.642 E3.84194
G1 X146.215 Y91.094 E3.86844
G1 X140.844 Y96.465 E4.23563
G1 X140.296 Y96.465 E4.26213
G1 X146.215 Y90.546 E4.66680
G1 X146.215 Y89.998 E4.69331
G1 X139.748 Y96.465 E5.13545
G1 X139.200 Y96.465 E5.16196
G1 X146.215 Y89.450 E5.64159
G1 X146.215 Y88.901 E5.66809
G1 X138.651 Y96.465 E6.18520
G1 X138.103 Y96.465 E6.21170
G1 X146.215 Y88.353 E6.76630
G1 X146.215 Y87.985 E6.78408
G1 X146.034 Y87.985 E6.79280
G1 X137.555 Y96.465 E7.37254
G1 X137.007 Y96.465 E7.39904
G1 X145.486 Y87.985 E7.97878
G1 X144.938 Y87.985 E8.00529
G1 X136.459 Y96.465 E8.58503
G1 X135.911 Y96.465 E8.61153
G1 X144.390 Y87.985 E9.19127
G1 X143.841 Y87.985 E9.21777
G1 X135.362 Y96.465 E9.79751
G1 X134.814 Y96.465 E9.82402
G1 X143.293 Y87.985 E10.40376
G1 X142.745 Y87.985 E10.43026
G1 X134.266 Y96.465 E11.01000
G1 X133.718 Y96.465 E11.03650
G1 X142.197 Y87.985 E11.61625
G1 X141.649 Y87.985 E11.64275
G1 X133.170 Y96.465 E12.22249
G1 X132.621 Y96.465 E12.24899
G1 X141.101 Y87.985 E12.82873
G1 X140.552 Y87.985 E12.85524
G1 X132.073 Y96.465 E13.43498
G1 X131.525 Y96.465 E13.46148
G1 X140.004 Y87.985 E14.04122
G1 X139.456 Y87.985 E14.06772
G1 X130.977 Y96.465 E14.64746
G1 X130.429 Y96.465 E14.67397
G1 X138.908 Y87.985 E15.25371
G1 X138.360 Y87.985 E15.28021
G1 X129.880 Y96.465 E15.85995
G1 X129.332 Y96.465 E15.88645
G1 X137.811 Y87.985 E16.46620
G1 X137.263 Y87.985 E16.49270
G1 X128.784 Y96.465 E17.07244
G1 X128.236 Y96.465 E17.09894
G1 X136.715 Y87.985 E17.67868
G1 X136.167 Y87.985 E17.70519
G1 X127.688 Y96.465 E18.28493
G1 X127.140 Y96.465 E18.31143
G1 X135.619 Y87.985 E18.89117
G1 X135.071 Y87.985 E18.91767
G1 X126.591 Y96.465 E19.49741
G1 X126.043 Y96.465 E19.52392
G1 X134.522 Y87.985 E20.10366
G1 X133.974 Y87.985 E20.13016
G1 X125.495 Y96.465 E20.70990
G1 X124.947 Y96.465 E20.73640
G1 X133.426 Y87.985 E21.31615
G1 X132.878 Y87.985 E21.34265
G1 X124.399 Y96.465 E21.92239
G1 X123.850 Y96.465 E21.94889
G1 X132.330 Y87.985 E22.52863
G1 X131.781 Y87.985 E22.55514
G1 X123.302 Y96.465 E23.13488
G1 X122.754 Y96.465 E23.16138
G1 X131.233 Y87.985 E23.74112
G1 X130.685 Y87.985 E23.76762
G1 X122.206 Y96.465 E24.34736
G1 X121.658 Y96.465 E24.37387
G1 X130.137 Y87.985 E24.95361
G1 X129.589 Y87.985 E24.98011
G1 X121.110 Y96.465 E25.55985
G1 X120.561 Y96.465 E25.58635
G1 X129.040 Y87.985 E26.16609
G1 X128.492 Y87.985 E26.19260
G1 X120.013 Y96.465 E26.77234
G1 X119.465 Y96.465 E26.79884
G1 X127.944 Y87.985 E27.37858
G1 X127.396 Y87.985 E27.40509
G1 X118.917 Y96.465 E27.98483
G1 X118.369 Y96.465 E28.01133
G1 X126.848 Y87.985 E28.59107
G1 X126.300 Y87.985 E28.61757
G1 X117.820 Y96.465 E29.19731
G1 X117.272 Y96.465 E29.22382
G1 X125.751 Y87.985 E29.80356
G1 X125.203 Y87.985 E29.83006
G1 X116.724 Y96.465 E30.40980
G1 X116.176 Y96.465 E30.43630
G1 X124.655 Y87.985 E31.01604
G1 X124.107 Y87.985 E31.04255
