; generated by Slic3r Prusa Edition 1.40.0-beta+win64 on 2021-01-04 at 18:28:30

; 

; external perimeters extrusion width = 0.45mm
; perimeters extrusion width = 0.45mm
; infill extrusion width = 0.45mm
; solid infill extrusion width = 0.45mm
; top infill extrusion width = 0.40mm
; first layer extrusion width = 0.70mm

M107
M104 S200 ; set temperature
G28 ; home all axes
G1 Z5 F5000 ; lift nozzle
; Filament gcode
M109 S200 ; set temperature and wait for it to be reached
G21 ; set units to millimeters
G90 ; use absolute coordinates
M82 ; use absolute distances for extrusion
G92 E0
G1 Z0.350 F15600.000
G1 E-2.00000 F2400.00000
G92 E0
G1 X67.768 Y77.351 F15600.000
G1 E2.00000 F2400.00000
G1 F3600
G1 X68.598 Y76.772 E2.09198
G1 X69.504 Y76.307 E2.18457
G1 X70.457 Y75.969 E2.27655
G1 X71.454 Y75.760 E2.36914
G1 X72.470 Y75.688 E2.46174
G1 X147.507 Y75.688 E9.28483
G1 X148.918 Y75.822 E9.41375
G1 X150.274 Y76.215 E9.54206
G1 X151.532 Y76.852 E9.67036
G1 X152.656 Y77.718 E9.79928
G1 X153.594 Y78.772 E9.92759
G1 X154.322 Y79.988 E10.05651
G1 X154.810 Y81.312 E10.18482
G1 X155.043 Y82.711 E10.31374
G1 X155.062 Y96.852 E11.59960
G1 X154.995 Y97.753 E11.68172
G1 X154.823 Y98.639 E11.76383
G1 X154.515 Y99.574 E11.85334
G1 X154.089 Y100.461 E11.94285
G1 X153.551 Y101.286 E12.03237
G1 X152.906 Y102.038 E12.12249
G1 X152.173 Y102.696 E12.21201
G1 X151.355 Y103.256 E12.30213
G1 X150.477 Y103.701 E12.39165
G1 X149.543 Y104.031 E12.48177
G1 X148.546 Y104.240 E12.57437
G1 X147.523 Y104.312 E12.66758
G1 X72.032 Y104.298 E19.53203
G1 X70.882 Y104.137 E19.63756
G1 X69.764 Y103.800 E19.74371
G1 X68.712 Y103.295 E19.84986
G1 X67.750 Y102.634 E19.95601
G1 X66.901 Y101.833 E20.06216
G1 X66.185 Y100.910 E20.16831
G1 X65.620 Y99.889 E20.27446
G1 X65.219 Y98.793 E20.38061
G1 X65.011 Y97.803 E20.47258
G1 X64.938 Y96.787 E20.56518
G1 X64.938 Y83.155 E21.80475
G1 X65.129 Y81.559 E21.95088
G1 X65.421 Y80.591 E22.04286
G1 X65.839 Y79.670 E22.13483
G1 X66.377 Y78.813 E22.22681
G1 X67.024 Y78.035 E22.31879
G1 X67.724 Y77.391 E22.40531
G1 X68.146 Y77.852 F15600.000
G1 F3600
G1 X68.945 Y77.293 E22.49392
G1 X69.785 Y76.866 E22.57965
G1 X70.676 Y76.557 E22.66538
G1 X71.568 Y76.376 E22.74815
G1 X72.476 Y76.313 E22.83093
G1 X147.507 Y76.313 E29.65340
G1 X148.800 Y76.436 E29.77157
G1 X150.054 Y76.800 E29.89032
G1 X151.212 Y77.390 E30.00848
G1 X152.240 Y78.185 E30.12665
G1 X153.102 Y79.158 E30.24481
G1 X153.767 Y80.274 E30.36298
G1 X154.212 Y81.495 E30.48114
G1 X154.422 Y82.784 E30.59989
G1 X154.437 Y96.835 E31.87750
G1 X154.235 Y98.412 E32.02215
G1 X153.957 Y99.286 E32.10551
G1 X153.563 Y100.121 E32.18947
G1 X153.066 Y100.891 E32.27284
G1 X152.466 Y101.594 E32.35679
G1 X151.784 Y102.206 E32.44016
G1 X151.022 Y102.727 E32.52412
G1 X150.197 Y103.142 E32.60808
G1 X149.324 Y103.443 E32.69203
G1 X148.432 Y103.624 E32.77481
G1 X147.524 Y103.687 E32.85759
G1 X72.097 Y103.676 E39.71613
G1 X71.028 Y103.529 E39.81425
G1 X69.994 Y103.219 E39.91237
G1 X69.021 Y102.752 E40.01050
G1 X68.133 Y102.140 E40.10862
G1 X67.350 Y101.398 E40.20674
G1 X66.691 Y100.543 E40.30486
G1 X66.173 Y99.596 E40.40298
G1 X65.807 Y98.574 E40.50169
G1 X65.626 Y97.688 E40.58387
G1 X65.563 Y96.780 E40.66665
G1 X65.563 Y83.172 E41.90406
G1 X65.726 Y81.752 E42.03400
G1 X65.990 Y80.854 E42.11914
G1 X66.375 Y79.993 E42.20486
G1 X66.873 Y79.193 E42.29059
G1 X67.475 Y78.467 E42.37632
G1 X68.102 Y77.892 E42.45369
G1 E40.45369 F2400.00000
G92 E0
G1 X66.324 Y81.944 F15600.000
G1 E2.00000 F2400.00000
G1 F3600
G1 X66.562 Y81.108 E2.07895
G1 X66.912 Y80.314 E2.15791
G1 X67.368 Y79.575 E2.23686
G1 X67.925 Y78.901 E2.31638
G1 X68.570 Y78.310 E2.39590
G1 X69.285 Y77.818 E2.47486
G1 X70.061 Y77.428 E2.55381
G1 X70.889 Y77.147 E2.63333
G1 X71.680 Y76.991 E2.70665
G1 X72.485 Y76.938 E2.77997
G1 X147.506 Y76.938 E9.60164
G1 X148.685 Y77.050 E9.70929
G1 X149.827 Y77.382 E9.81749
G1 X150.887 Y77.923 E9.92570
G1 X151.827 Y78.654 E10.03390
G1 X152.609 Y79.542 E10.14155
G1 X153.214 Y80.567 E10.24975
G1 X153.614 Y81.681 E10.35740
G1 X153.800 Y82.856 E10.46560
G1 X153.812 Y96.812 E11.73459
G1 X153.646 Y98.190 E11.86076
G1 X153.395 Y99.008 E11.93859
G1 X153.038 Y99.779 E12.01585
G1 X152.581 Y100.496 E12.09312
G1 X152.028 Y101.148 E12.17095
G1 X151.396 Y101.717 E12.24821
G1 X150.688 Y102.198 E12.32604
G1 X149.922 Y102.579 E12.40387
G1 X149.111 Y102.853 E12.48170
G1 X148.320 Y103.009 E12.55502
G1 X147.515 Y103.062 E12.62835
G1 X72.159 Y103.053 E19.48048
G1 X71.175 Y102.922 E19.57069
G1 X70.225 Y102.638 E19.66090
G1 X69.330 Y102.209 E19.75112
G1 X68.514 Y101.645 E19.84133
G1 X67.796 Y100.960 E19.93154
G1 X67.195 Y100.171 E20.02175
G1 X66.724 Y99.297 E20.11196
G1 X66.397 Y98.361 E20.20218
G1 X66.242 Y97.576 E20.27494
G1 X66.188 Y96.778 E20.34770
G1 X66.188 Y83.194 E21.58284
G1 X66.318 Y82.003 E21.69177
G1 E19.69177 F2400.00000
G92 E0
G1 X145.900 Y95.150 F15600.000
G1 E2.00000 F2400.00000
G1 F3600
G1 X74.100 Y95.150 E8.52878
G1 X74.100 Y84.850 E9.46540
G1 X145.900 Y84.850 E15.99418
G1 X145.900 Y95.090 E16.92534
G1 X146.525 Y95.775 F15600.000
G1 F3600
G1 X73.475 Y95.775 E23.56777
G1 X73.475 Y84.225 E24.61803
G1 X146.525 Y84.225 E31.26045
G1 X146.525 Y95.715 E32.30525
G1 X147.150 Y96.400 F15600.000
G1 F3600
G1 X72.850 Y96.400 E39.06132
G1 X72.850 Y83.600 E40.22522
G1 X147.150 Y83.600 E46.98129
G1 X147.150 Y96.340 E48.13973
G1 X146.751 Y96.377 F15600.000
G1 E46.13973 F2400.00000
G92 E0
G1 X145.713 Y86.303 F15600.000
G1 E2.00000 F2400.00000
G1 F3600
G1 X144.728 Y85.318 E2.12691
G1 X143.842 Y85.318 E2.20761
G1 X145.432 Y86.908 E2.41240
G1 X145.432 Y87.793 E2.49310
G1 X142.957 Y85.318 E2.81203
G1 X142.071 Y85.318 E2.89273
G1 X145.432 Y88.679 E3.32578
G1 X145.432 Y89.564 E3.40648
G1 X141.186 Y85.318 E3.95365
G1 X140.300 Y85.318 E4.03435
G1 X145.432 Y90.450 E4.69565
G1 X145.432 Y91.336 E4.77635
G1 X139.414 Y85.318 E5.55178
G1 X138.529 Y85.318 E5.63248
G1 X145.432 Y92.221 E6.52204
G1 X145.432 Y93.107 E6.60274
G1 X137.643 Y85.318 E7.60642
G1 X136.758 Y85.318 E7.68712
G1 X145.432 Y93.992 E8.80493
G1 X145.432 Y94.682 E8.86772
G1 X145.235 Y94.682 E8.88562
G1 X135.872 Y85.318 E10.09223
G1 X134.986 Y85.318 E10.17293
G1 X144.349 Y94.682 E11.37954
G1 X143.464 Y94.682 E11.46024
G1 X134.101 Y85.318 E12.66685
G1 X133.215 Y85.318 E12.74755
G1 X142.578 Y94.682 E13.95415
G1 X141.693 Y94.682 E14.03485
G1 X132.329 Y85.318 E15.24146
G1 X131.444 Y85.318 E15.32216
G1 X140.807 Y94.682 E16.52877
G1 X139.921 Y94.682 E16.60947
G1 X130.558 Y85.318 E17.81608
G1 X129.673 Y85.318 E17.89678
G1 X139.036 Y94.682 E19.10338
G1 X138.150 Y94.682 E19.18408
G1 X128.787 Y85.318 E20.39069
G1 X127.901 Y85.318 E20.47139
G1 X137.265 Y94.682 E21.67800
G1 X136.379 Y94.682 E21.75870
G1 X127.016 Y85.318 E22.96531
G1 X126.130 Y85.318 E23.04601
G1 X135.493 Y94.682 E24.25261
G1 X134.608 Y94.682 E24.33331
G1 X125.245 Y85.318 E25.53992
G1 X124.359 Y85.318 E25.62062
G1 X133.722 Y94.682 E26.82723
G1 X132.837 Y94.682 E26.90793
G1 X123.473 Y85.318 E28.11454
G1 X122.588 Y85.318 E28.19523
G1 X131.951 Y94.682 E29.40184
G1 X131.065 Y94.682 E29.48254
G1 X121.702 Y85.318 E30.68915
G1 X120.817 Y85.318 E30.76985
G1 X130.180 Y94.682 E31.97646
G1 X129.294 Y94.682 E32.05716
G1 X119.931 Y85.318 E33.26376
G1 X119.045 Y85.318 E33.34446
G1 X128.408 Y94.682 E34.55107
G1 X127.523 Y94.682 E34.63177
G1 X118.160 Y85.318 E35.83838
G1 X117.274 Y85.318 E35.91908
G1 X126.637 Y94.682 E37.12569
G1 X125.752 Y94.682 E37.20639
G1 X116.388 Y85.318 E38.41299
G1 X115.503 Y85.318 E38.49369
G1 X124.866 Y94.682 E39.70030
G1 X123.980 Y94.682 E39.78100
G1 X114.617 Y85.318 E40.98761
G1 X113.732 Y85.318 E41.06831
G1 X123.095 Y94.682 E42.27492
G1 X122.209 Y94.682 E42.35562
G1 X112.846 Y85.318 E43.56222
G1 X111.960 Y85.318 E43.64292
G1 X121.324 Y94.682 E44.84953
G1 X120.438 Y94.682 E44.93023
G1 X111.075 Y85.318 E46.13684
G1 X110.189 Y85.318 E46.21754
G1 X119.552 Y94.682 E47.42415
G1 X118.667 Y94.682 E47.50485
G1 X109.304 Y85.318 E48.71145
G1 X108.418 Y85.318 E48.79215
G1 X117.781 Y94.682 E49.99876
G1 X116.896 Y94.682 E50.07946
G1 X107.532 Y85.318 E51.28607
G1 X106.647 Y85.318 E51.36677
G1 X116.010 Y94.682 E52.57337
G1 X115.124 Y94.682 E52.65407
G1 X105.761 Y85.318 E53.86068
G1 X104.876 Y85.318 E53.94138
G1 X114.239 Y94.682 E55.14799
G1 X113.353 Y94.682 E55.22869
G1 X103.990 Y85.318 E56.43530
G1 X103.104 Y85.318 E56.51600
G1 X112.468 Y94.682 E57.72260
G1 X111.582 Y94.682 E57.80330
G1 X102.219 Y85.318 E59.00991
G1 X101.333 Y85.318 E59.09061
G1 X110.696 Y94.682 E60.29722
G1 X109.811 Y94.682 E60.37792
G1 X100.448 Y85.318 E61.58453
G1 X99.562 Y85.318 E61.66523
G1 X108.925 Y94.682 E62.87183
G1 X108.039 Y94.682 E62.95253
G1 X98.676 Y85.318 E64.15914
G1 X97.791 Y85.318 E64.23984
G1 X107.154 Y94.682 E65.44645
G1 X106.268 Y94.682 E65.52715
G1 X96.905 Y85.318 E66.73375
G1 X96.019 Y85.318 E66.81445
G1 X105.383 Y94.682 E68.02106
G1 X104.497 Y94.682 E68.10176
G1 X95.134 Y85.318 E69.30837
G1 X94.248 Y85.318 E69.38907
G1 X103.611 Y94.682 E70.59568
G1 X102.726 Y94.682 E70.67638
G1 X93.363 Y85.318 E71.88298
G1 X92.477 Y85.318 E71.96368
G1 X101.840 Y94.682 E73.17029
G1 X100.955 Y94.682 E73.25099
G1 X91.591 Y85.318 E74.45760
G1 X90.706 Y85.318 E74.53830
G1 X100.069 Y94.682 E75.74491
G1 X99.183 Y94.682 E75.82561
G1 X89.820 Y85.318 E77.03221
G1 X88.935 Y85.318 E77.11291
G1 X98.298 Y94.682 E78.31952
G1 X97.412 Y94.682 E78.40022
G1 X88.049 Y85.318 E79.60683
G1 X87.163 Y85.318 E79.68753
G1 X96.527 Y94.682 E80.89413
G1 X95.641 Y94.682 E80.97483
G1 X86.278 Y85.318 E82.18144
G1 X85.392 Y85.318 E82.26214
G1 X94.755 Y94.682 E83.46875
G1 X93.870 Y94.682 E83.54945
G1 X84.507 Y85.318 E84.75606
G1 X83.621 Y85.318 E84.83676
G1 X92.984 Y94.682 E86.04336
G1 X92.099 Y94.682 E86.12406
G1 X82.735 Y85.318 E87.33067
G1 X81.850 Y85.318 E87.41137
G1 X91.213 Y94.682 E88.61798
G1 X90.327 Y94.682 E88.69868
G1 X80.964 Y85.318 E89.90529
G1 X80.079 Y85.318 E89.98599
G1 X89.442 Y94.682 E91.19259
G1 X88.556 Y94.682 E91.27329
G1 X79.193 Y85.318 E92.47990
G1 X78.307 Y85.318 E92.56060
G1 X87.670 Y94.682 E93.76721
G1 X86.785 Y94.682 E93.84791
G1 X77.422 Y85.318 E95.05452
G1 X76.536 Y85.318 E95.13521
G1 X85.899 Y94.682 E96.34182
G1 X85.014 Y94.682 E96.42252
G1 X75.650 Y85.318 E97.62913
G1 X74.765 Y85.318 E97.70983
G1 X84.128 Y94.682 E98.91644
G1 X83.242 Y94.682 E98.99714
G1 X74.568 Y86.008 E100.11494
G1 X74.568 Y86.893 E100.19564
G1 X82.357 Y94.682 E101.19931
G1 X81.471 Y94.682 E101.28001
G1 X74.568 Y87.779 E102.16955
G1 X74.568 Y88.664 E102.25025
G1 X80.586 Y94.682 E103.02567
G1 X79.700 Y94.682 E103.10637
G1 X74.568 Y89.550 E103.76767
G1 X74.568 Y90.436 E103.84837
G1 X78.814 Y94.682 E104.39553
G1 X77.929 Y94.682 E104.47623
G1 X74.568 Y91.321 E104.90927
G1 X74.568 Y92.207 E104.98997
G1 X77.043 Y94.682 E105.30889
G1 X76.158 Y94.682 E105.38959
G1 X74.568 Y93.092 E105.59438
G1 X74.568 Y93.978 E105.67508
G1 X75.553 Y94.963 E105.80197
G1 Z0.650 F15600.000
G1 X146.504 Y95.754
G1 F7200
G1 X73.496 Y95.754 E109.31339
G1 X73.496 Y84.246 E109.86686
G1 X146.504 Y84.246 E113.37827
G1 X146.504 Y95.694 E113.92886
G1 X146.889 Y96.139 F15600.000
G1 F7200
G1 X73.111 Y96.139 E117.47737
G1 X73.111 Y83.861 E118.06793
G1 X146.889 Y83.861 E121.61644
G1 X146.889 Y96.079 E122.20412
G1 X147.275 Y96.525 F15600.000
G1 F3600
G1 X72.725 Y96.525 E125.78972
G1 X72.725 Y83.475 E126.41738
G1 X147.275 Y83.475 E130.00298
G1 X147.275 Y96.465 E130.62776
G1 X146.876 Y96.502 F15600.000
G1 X145.607 Y95.638
G1 F2400
G1 X146.215 Y95.031 E130.66914
G1 X146.215 Y94.484 E130.69546
G1 X145.234 Y95.465 E130.76225
G1 X144.688 Y95.465 E130.78857
G1 X146.215 Y93.938 E130.89258
G1 X146.215 Y93.392 E130.91890
G1 X144.142 Y95.465 E131.06014
G1 X143.595 Y95.465 E131.08646
G1 X146.215 Y92.845 E131.26491
G1 X146.215 Y92.299 E131.29123
G1 X143.049 Y95.465 E131.50691
G1 X142.503 Y95.465 E131.53323
G1 X146.215 Y91.753 E131.78613
G1 X146.215 Y91.207 E131.81245
G1 X141.957 Y95.465 E132.10258
G1 X141.410 Y95.465 E132.12890
G1 X146.215 Y90.660 E132.45625
G1 X146.215 Y90.114 E132.48257
G1 X140.864 Y95.465 E132.84714
G1 X140.318 Y95.465 E132.87346
G1 X146.215 Y89.568 E133.27525
G1 X146.215 Y89.021 E133.30157
G1 X139.771 Y95.465 E133.74059
G1 X139.225 Y95.465 E133.76691
G1 X146.215 Y88.475 E134.24315
G1 X146.215 Y87.929 E134.26947
G1 X138.679 Y95.465 E134.78293
G1 X138.133 Y95.465 E134.80925
G1 X146.215 Y87.383 E135.35994
G1 X146.215 Y86.836 E135.38626
G1 X137.586 Y95.465 E135.97416
G1 X137.040 Y95.465 E136.00048
G1 X146.215 Y86.290 E136.62561
G1 X146.215 Y85.744 E136.65193
G1 X136.494 Y95.465 E137.31429
G1 X135.947 Y95.465 E137.34061
G1 X146.215 Y85.197 E138.04018
G1 X146.215 Y84.651 E138.06651
G1 X135.401 Y95.465 E138.80330
G1 X134.855 Y95.465 E138.82962
G1 X145.784 Y84.535 E139.57430
G1 X145.238 Y84.535 E139.60062
G1 X134.308 Y95.465 E140.34530
G1 X133.762 Y95.465 E140.37162
G1 X144.691 Y84.535 E141.11630
G1 X144.145 Y84.535 E141.14262
G1 X133.216 Y95.465 E141.88730
G1 X132.670 Y95.465 E141.91362
G1 X143.599 Y84.535 E142.65830
G1 X143.052 Y84.535 E142.68462
G1 X132.123 Y95.465 E143.42930
G1 X131.577 Y95.465 E143.45562
G1 X142.506 Y84.535 E144.20030
G1 X141.960 Y84.535 E144.22662
G1 X131.031 Y95.465 E144.97129
G1 X130.484 Y95.465 E144.99761
G1 X141.414 Y84.535 E145.74229
G1 X140.867 Y84.535 E145.76861
G1 X129.938 Y95.465 E146.51329
G1 X129.392 Y95.465 E146.53961
G1 X140.321 Y84.535 E147.28429
G1 X139.775 Y84.535 E147.31061
G1 X128.846 Y95.465 E148.05529
G1 X128.299 Y95.465 E148.08161
G1 X139.228 Y84.535 E148.82629
G1 X138.682 Y84.535 E148.85261
G1 X127.753 Y95.465 E149.59729
G1 X127.207 Y95.465 E149.62361
G1 X138.136 Y84.535 E150.36829
G1 X137.589 Y84.535 E150.39461
G1 X126.660 Y95.465 E151.13928
G1 X126.114 Y95.465 E151.16560
G1 X137.043 Y84.535 E151.91028
G1 X136.497 Y84.535 E151.93660
G1 X125.568 Y95.465 E152.68128
G1 X125.021 Y95.465 E152.70760
G1 X135.951 Y84.535 E153.45228
G1 X135.404 Y84.535 E153.47860
G1 X124.475 Y95.465 E154.22328
G1 X123.929 Y95.465 E154.24960
G1 X134.858 Y84.535 E154.99428
G1 X134.312 Y84.535 E155.02060
G1 X123.383 Y95.465 E155.76528
G1 X122.836 Y95.465 E155.79160
G1 X133.765 Y84.535 E156.53628
G1 X133.219 Y84.535 E156.56260
G1 X122.290 Y95.465 E157.30727
G1 X121.744 Y95.465 E157.33359
G1 X132.673 Y84.535 E158.07827
G1 X132.127 Y84.535 E158.10459
G1 X121.197 Y95.465 E158.84927
G1 X120.651 Y95.465 E158.87559
G1 X131.580 Y84.535 E159.62027
G1 X131.034 Y84.535 E159.64659
G1 X120.105 Y95.465 E160.39127
G1 X119.559 Y95.465 E160.41759
G1 X130.488 Y84.535 E161.16227
G1 X129.941 Y84.535 E161.18859
G1 X119.012 Y95.465 E161.93327
G1 X118.466 Y95.465 E161.95959
G1 X129.395 Y84.535 E162.70427
G1 X128.849 Y84.535 E162.73059
G1 X117.920 Y95.465 E163.47526
G1 X117.373 Y95.465 E163.50158
G1 X128.302 Y84.535 E164.24626
G1 X127.756 Y84.535 E164.27258
G1 X116.827 Y95.465 E165.01726
G1 X116.281 Y95.465 E165.04358
G1 X127.210 Y84.535 E165.78826
G1 X126.664 Y84.535 E165.81458
G1 X115.734 Y95.465 E166.55926
G1 X115.188 Y95.465 E166.58558
G1 X126.117 Y84.535 E167.33026
G1 X125.571 Y84.535 E167.35658
G1 X114.642 Y95.465 E168.10126
G1 X114.096 Y95.465 E168.12758
G1 X125.025 Y84.535 E168.87226
G1 X124.478 Y84.535 E168.89858
G1 X113.549 Y95.465 E169.64325
G1 X113.003 Y95.465 E169.66957
G1 X123.932 Y84.535 E170.41425
G1 X123.386 Y84.535 E170.44057
G1 X112.457 Y95.465 E171.18525
G1 X111.910 Y95.465 E171.21157
G1 X122.840 Y84.535 E171.95625
G1 X122.293 Y84.535 E171.98257
G1 X111.364 Y95.465 E172.72725
G1 X110.818 Y95.465 E172.75357
G1 X121.747 Y84.535 E173.49825
G1 X121.201 Y84.535 E173.52457
G1 X110.271 Y95.465 E174.26925
G1 X109.725 Y95.465 E174.29557
G1 X120.654 Y84.535 E175.04025
G1 X120.108 Y84.535 E175.06657
G1 X109.179 Y95.465 E175.81124
G1 X108.633 Y95.465 E175.83756
G1 X119.562 Y84.535 E176.58224
G1 X119.015 Y84.535 E176.60856
G1 X108.086 Y95.465 E177.35324
G1 X107.540 Y95.465 E177.37956
G1 X118.469 Y84.535 E178.12424
G1 X117.923 Y84.535 E178.15056
G1 X106.994 Y95.465 E178.89524
G1 X106.447 Y95.465 E178.92156
G1 X117.377 Y84.535 E179.66624
G1 X116.830 Y84.535 E179.69256
G1 X105.901 Y95.465 E180.43724
G1 X105.355 Y95.465 E180.46356
G1 X116.284 Y84.535 E181.20823
G1 X115.738 Y84.535 E181.23456
